!!!SOCIAL_FUNCTION:	songs used in the treatment of the sick
!!!PDT:	1922
!!!OTL: No_66_Song_Used_in_Treatment_of_Sick_(o).krn
!!!REG: Southwest
!!!LANG: Non-Tone
!!!LING_GROUP: Uto-Aztecan
**kern
*staff1
=1-
*clefG2
*k[b-e-]
*M2/4
8b-/L
8f/J
8f/L
8f/J
=2||
*M3/4
8f/L
8f/J
8f/L
8f/J
8f/L
8f;/J
=3||
*M2/4
8b-/L
8f/J
8d/L
8d/J
=4
8d/L
8d/J
8d/L
8d/J
=5||
*M3/4
12b-\L
12b-\
24b-\L
24f\JJ
8b-/L
8f/J
8d/L
16d/L
16c/JJ
=6||
*M2/4
8d/L
8c/J
8B-/L
8B-/J
=7
8B-/L
8B-/J
8B-/L
8B-;/J
=8||
*M3/4
8c/L
8B-/J
8B-/L
8B-/J
4B-/
=9||
*M2/4
8d/L
8c/J
4c/
=10
8c/L
8B-/J
8B-/L
8B-/J
=11
8B-/L
8B-/J
4B-/
=12
8c/L
8B-/J
8B-/L
8B-/J
=13
8B-/L
8B-/J
4B-/
=14
2B-/
==
*-
